logos/certbot.svg

<?xml version="1.0" encoding="UTF-8"?>
<svg width="512px" height="176px" viewBox="0 0 512 176" version="1.1" xmlns="http://www.w3.org/2000/svg" xmlns:xlink="http://www.w3.org/1999/xlink" preserveAspectRatio="xMidYMid">
	<g>
		<path d="M126.916601,175.250405 C125.916863,168.693961 120.248889,163.58149 113.357804,163.58149 C106.467556,163.58149 100.799582,168.582693 99.7990065,175.250405 L101.355085,175.250405 L126.916601,175.250405 Z" fill="#000000"></path>
		<path d="M96.3538824,175.250405 C95.3541438,168.693961 89.6861699,163.58149 82.795085,163.58149 C75.904,163.58149 70.2368627,168.582693 69.2362876,175.250405 L94.7969673,175.250405 L96.3538824,175.250405 Z" fill="#000000"></path>
		<path d="M78.5727582,152.008946 L78.5727582,171.249778 L93.3538301,171.249778 L93.3538301,122.794667 L78.5727582,122.794667 L78.5727582,142.703942 C77.6628343,144.038202 77.1279477,145.642319 77.1279477,147.356444 C77.1279477,149.07057 77.6628343,150.674687 78.5727582,152.008946 Z M85.4630065,142.243137 C82.6846536,142.243137 80.3513725,144.465987 80.3513725,147.355608 C80.3513725,150.245229 82.5742222,152.467242 85.4630065,152.467242 C88.3526275,152.467242 90.5754771,150.245229 90.5754771,147.355608 C90.5754771,144.465987 88.2413595,142.243137 85.4630065,142.243137 Z" fill="#ED1C24"></path>
		<path d="M117.247163,142.544736 L117.247163,122.794667 L102.466092,122.794667 L102.466092,171.249778 L117.247163,171.249778 L117.247163,152.16848 C118.224631,150.803432 118.803242,149.139452 118.803242,147.356444 C118.803242,145.573579 118.224595,143.909722 117.247163,142.544736 Z M110.468183,142.243137 C107.68983,142.243137 105.355712,144.465987 105.355712,147.355608 C105.355712,150.245229 107.578562,152.467242 110.468183,152.467242 C113.357804,152.467242 115.579817,150.245229 115.579817,147.355608 C115.579817,144.465987 113.246536,142.243137 110.468183,142.243137 Z" fill="#ED1C24"></path>
		<path d="M142.884784,75.1110549 L145.587033,33.3310327 L149.921464,33.3310327 L152.006728,75.2427126 C153.586824,76.566075 154.588863,78.5550206 154.588863,80.7855686 C154.588863,84.6728367 151.546314,87.8263229 147.703028,88.0019124 C142.645137,93.8684477 133.785629,102.000256 120.581856,106.902588 L120.581856,86.4535425 L120.581856,86.4535425 C120.581856,86.4535425 132.80464,88.1123395 140.149148,81.1383084 C140.143576,81.02145 140.140758,80.903849 140.140758,80.7855686 C140.140758,78.4797641 141.211553,76.4321398 142.884784,75.1110549 Z M147.36481,77.0074771 C145.253229,77.0074771 143.475451,78.7852549 143.475451,80.8968366 C143.475451,83.0084183 145.253229,84.7861961 147.36481,84.7861961 C149.476392,84.7861961 151.25417,83.0084183 151.25417,80.8968366 C151.25417,78.7852549 149.58766,77.0074771 147.36481,77.0074771 Z" fill="#ED1C24"></path>
		<path d="M52.9351378,75.1110549 L50.2328889,33.3310327 L45.8984575,33.3310327 L43.9217892,75.1535433 C42.2791498,76.4758173 41.2310588,78.5043399 41.2310588,80.7855686 C41.2310588,84.6731068 44.2748206,87.8267611 48.1177617,88.0019489 C53.1756583,93.8684815 62.0351565,102.000266 75.238902,106.902588 L75.238902,86.4535425 C75.238902,86.4535425 63.01523,88.11246 55.6708099,81.1375483 C55.676358,81.02094 55.6791634,80.9035925 55.6791634,80.7855686 C55.6791634,78.4797641 54.6083685,76.4321398 52.9351378,75.1110549 Z M48.4551111,77.0074771 C46.3435294,77.0074771 44.5657516,78.7852549 44.5657516,80.8968366 C44.5657516,83.0084183 46.3435294,84.7861961 48.4551111,84.7861961 C50.5666928,84.7861961 52.3444706,83.0084183 52.3444706,80.8968366 C52.3444706,78.7852549 50.5666928,77.0074771 48.4551111,77.0074771 Z" fill="#ED1C24"></path>
		<path d="M53.4554771,18.3282614 L53.4554771,30.5535163 L43.3426405,30.5535163 L43.3426405,18.3282614 C40.2304837,20.1060392 38.118902,23.440732 38.118902,27.2188235 C38.118902,32.8867974 42.6758693,37.4429281 48.3438431,37.4429281 C54.011817,37.4429281 58.5679477,32.8867974 58.5679477,27.2188235 C58.6792157,23.440732 56.567634,20.1060392 53.4554771,18.3282614 Z" fill="#000000"></path>
		<path d="M143.031216,18.3282614 L143.031216,30.5535163 L153.144052,30.5535163 L153.144052,18.3282614 C156.256209,20.1060392 158.367791,23.440732 158.367791,27.2188235 C158.367791,32.8867974 153.81166,37.4429281 148.143686,37.4429281 C142.475712,37.4429281 137.918745,32.8867974 137.918745,27.2188235 C137.807477,23.440732 139.919059,20.1060392 143.031216,18.3282614 Z" fill="#000000"></path>
		<path d="M76.2423413,83.2842054 L76.4611765,60.1148235 C76.5724444,54.2243137 78.9057255,48.7788758 83.1288889,44.6669804 C87.3520523,40.555085 92.9087582,38.3322353 98.7984314,38.4435033 C104.688941,38.5547712 110.134379,40.8880523 114.246275,45.1112157 C118.35817,49.3343791 120.58102,54.891085 120.469752,60.7815948 L120.185682,82.9676105 C124.853711,88.163295 127.693804,95.0344746 127.693804,102.568993 C127.693804,118.772811 114.558014,131.908601 98.3541961,131.908601 C82.1503781,131.908601 69.0145882,118.772811 69.0145882,102.568993 C69.0145882,95.1865258 71.7412081,88.4408943 76.2423413,83.2842054 Z M112.704004,76.9720697 L112.912732,60.6703268 C112.912732,56.7809673 111.467922,53.1133072 108.800837,50.3349542 C106.133752,47.5566013 102.466092,46.0005229 98.5758954,46.0005229 C94.6856993,46.0005229 91.0188758,47.4453333 88.2405229,50.1124183 C85.4621699,52.7795033 83.9060915,56.4471634 83.9060915,60.3365229 L83.6676853,77.1641745 C87.9869244,74.6618314 93.0032774,73.2293856 98.3541961,73.2293856 C103.56665,73.2293856 108.46163,74.5886565 112.704009,76.9720726 Z M90.9084444,69.0053856 C92.6882308,69.0053856 94.1310327,67.5625837 94.1310327,65.7827974 C94.1310327,64.003011 92.6882308,62.5602092 90.9084444,62.5602092 C89.1286581,62.5602092 87.6858562,64.003011 87.6858562,65.7827974 C87.6858562,67.5625837 89.1286581,69.0053856 90.9084444,69.0053856 Z M106.022484,69.0053856 C107.80227,69.0053856 109.245072,67.5625837 109.245072,65.7827974 C109.245072,64.003011 107.80227,62.5602092 106.022484,62.5602092 C104.242697,62.5602092 102.799895,64.003011 102.799895,65.7827974 C102.799895,67.5625837 104.242697,69.0053856 106.022484,69.0053856 Z" fill="#000000"></path>
		<path d="M95.6871111,97.7903268 L94.575268,118.794039 L102.799895,118.794039 L101.132549,97.6790588 C103.132863,96.6784837 104.466405,94.6781699 104.466405,92.2327843 C104.466405,88.8989281 101.688052,86.1205752 98.3541961,86.1205752 C95.0203399,86.1205752 92.2419869,88.8989281 92.2419869,92.2327843 C92.3532549,94.7894379 93.6867974,96.788915 95.6871111,97.7903268 Z" fill="#ED1C24"></path>
		<path d="M27.7835294,11.5484444 C24.7826405,7.1035817 20.5594771,4.5469281 16.1146144,4.5469281 C11.5576471,4.5469281 7.44575163,6.99147712 4.33359477,11.4371765 C1.55607843,15.5499085 0,20.9953464 0,26.6633203 C0,32.3304575 1.55607843,37.776732 4.33443137,41.8886275 C7.33532026,46.3334902 11.5584837,48.7788758 16.0033464,48.7788758 C20.4490458,48.7788758 24.6722092,46.3343268 27.784366,41.8886275 C29.7846797,38.9990065 31.1182222,35.5538824 31.6737255,31.7749542 C31.7849935,31.108183 32.4517647,30.5526797 33.1185359,30.5526797 L209.267451,30.6639477 C210.04549,30.6639477 210.712261,29.9971765 210.823529,29.2191373 L210.823529,24.550902 C210.823529,23.7728627 210.156758,23.1060915 209.378719,22.9956601 L204.044549,22.9956601 C203.26651,22.9956601 202.599739,22.3288889 202.599739,21.4395817 L202.599739,1.65730719 C202.599739,0.879267974 201.932967,0.212496732 201.154928,0.101228758 L178.928105,0.101228758 C178.150065,0.101228758 177.483294,0.768 177.372026,1.54603922 L177.372026,21.3283137 C177.372026,22.1063529 176.705255,22.7731242 175.815948,22.7731242 L174.482405,22.7731242 C173.704366,22.7731242 173.037595,22.1063529 173.037595,21.2178824 L173.037595,6.10384314 C173.037595,5.32580392 172.370824,4.65903268 171.592784,4.54776471 L168.14766,4.54776471 C167.369621,4.54776471 166.70285,5.21453595 166.591582,5.99257516 L166.591582,21.1066144 C166.591582,21.8846536 165.92481,22.5514248 165.03634,22.5514248 L33.2298039,22.5514248 C32.4517647,22.5514248 31.8962614,21.9959216 31.7849935,21.3291503 C31.0061176,17.8831895 29.7846797,14.3267974 27.7835294,11.5484444 Z M16.0033464,42.5553987 C10.6691765,42.5553987 6.11220915,35.2200784 6.11220915,26.6633203 C6.11220915,18.1057255 10.6691765,10.7704052 16.1146144,10.7704052 C21.5600523,10.7704052 26.0057516,18.1057255 26.0057516,26.6633203 C26.0057516,35.220915 21.3375163,42.5553987 16.0033464,42.5553987 Z" fill="#ED1C24"></path>
		<path d="M55.7904314,33.3310327 C55.0123922,32.2191895 54.2343529,31.6636863 53.4563137,30.5526797 L53.4563137,30.5526797 L43.3426405,30.5526797 L43.3426405,18.3274248 C40.2304837,20.1052026 38.118902,23.4398954 38.118902,27.2179869 C38.118902,32.8859608 42.6758693,37.4420915 48.3438431,37.4420915 C51.4551634,37.4420915 54.2343529,35.997281 56.1233987,33.8856993 C56.1233987,33.6648366 55.9008627,33.5535686 55.7904314,33.3310327 Z" fill="#000000"></path>
		<path d="M140.808366,33.3310327 C141.586405,32.2191895 141.808105,31.6636863 142.586144,30.5526797 L143.141647,30.5526797 L153.254484,30.5526797 L153.254484,18.3274248 C156.366641,20.1052026 158.478222,23.4398954 158.478222,27.2179869 C158.478222,32.8859608 153.922092,37.4420915 148.254118,37.4420915 C145.141961,37.4420915 142.363608,35.997281 140.474562,33.8856993 C140.475399,33.6648366 140.58583,33.5535686 140.808366,33.3310327 Z" fill="#000000"></path>
		<path d="M166.147346,163.248523 C169.036967,163.248523 171.371085,162.360052 173.037595,160.691869 C174.815373,159.025359 175.593412,156.80251 175.593412,154.024157 L190.151948,154.024157 L190.263216,154.357124 C190.374484,160.358065 188.151634,165.470536 183.483399,169.582431 C178.816,173.694327 172.92549,175.694641 166.035242,175.694641 C157.14468,175.694641 150.254431,172.917124 145.364497,167.248314 C140.58583,161.581176 138.140444,154.357124 138.140444,145.465725 L138.140444,143.799216 C138.140444,135.019085 140.58583,127.795869 145.586196,122.016627 C150.587399,116.34949 157.588915,113.459033 166.813281,113.459033 C171.591948,113.459033 175.926379,114.125804 179.815739,115.569778 C183.594667,117.015425 186.817255,119.014902 189.373072,121.682824 L189.595608,137.68617 L176.481882,137.68617 L173.814797,128.351373 C173.036758,127.684601 172.03702,127.016993 170.814745,126.572758 C169.592471,126.128523 168.258092,125.905987 166.814118,125.905987 C162.25715,125.905987 159.034562,127.573333 157.145516,130.90719 C155.255634,134.241046 154.367163,138.464209 154.367163,143.687948 L154.367163,145.354458 C154.367163,150.689464 155.255634,155.023895 156.92298,158.246484 C158.812026,161.582013 161.812915,163.248523 166.147346,163.248523 Z M225.160366,175.584209 C216.491503,175.584209 209.601255,172.806693 204.489621,167.24915 C199.37715,161.692444 196.710065,154.690928 196.710065,146.133333 L196.710065,143.91132 C196.710065,135.019922 199.155451,127.685438 204.045386,121.906196 C208.93532,116.127791 215.492601,113.348601 223.716392,113.348601 C231.828915,113.348601 238.052392,115.79315 242.498092,120.683922 C246.942954,125.573856 249.165804,132.131137 249.165804,140.466196 L249.165804,149.24549 L213.491451,149.24549 L213.380183,149.578458 C213.713987,153.579085 215.047529,156.80251 217.381647,159.358327 C219.715765,161.91498 222.938353,163.137255 226.93898,163.137255 C230.494536,163.137255 233.495425,162.804288 235.829542,162.026248 C238.16366,161.359477 240.719477,160.136366 243.609098,158.581124 L247.943529,168.582693 C245.498144,170.583843 242.275556,172.139085 238.386196,173.473464 C234.383895,174.917438 230.049464,175.584209 225.160366,175.584209 Z M223.715556,126.018092 C220.714667,126.018092 218.381386,127.129098 216.602771,129.463216 C214.824157,131.797333 213.824418,134.797386 213.379346,138.465046 L213.490614,138.688418 L233.384157,138.688418 L233.384157,137.242771 C233.384157,133.797647 232.606118,131.130562 230.939608,129.01898 C229.383529,127.01783 227.049412,126.018092 223.715556,126.018092 Z M258.611869,164.803765 L266.391425,163.137255 L266.391425,126.018092 L257.83383,124.351582 L257.83383,114.571712 L281.395033,114.571712 L282.061804,123.351007 C283.506614,120.239686 285.285229,117.794301 287.507242,116.127791 C289.730092,114.349176 292.286745,113.571137 295.175529,113.571137 C296.064837,113.571137 296.954144,113.682405 297.842614,113.793673 C298.731085,113.904941 299.509961,114.126641 300.176732,114.237908 L300.176732,126.462327 L295.397229,126.573595 C291.174065,126.573595 287.395974,128.129673 286.062431,129.01898 C284.617621,130.018719 283.284078,132.352837 282.394771,134.020183 L282.394771,163.137255 L290.174327,164.803765 L290.174327,174.473203 L258.501438,174.473203 L258.501438,164.803765 L258.611869,164.803765 Z M332.62766,100.01234 L332.62766,114.237908 L343.185569,114.237908 L343.185569,126.462327 L332.62766,126.462327 L332.62766,156.468706 C332.62766,158.802824 333.071895,160.469333 334.073307,161.470745 C335.073046,162.470484 336.29532,162.915556 337.962667,162.915556 C339.073673,162.915556 340.073412,162.915556 340.851451,162.804288 C341.630327,162.69302 342.630065,162.581752 343.629804,162.360052 L344.964183,174.028967 C343.185569,174.584471 341.407791,175.028706 339.629176,175.251242 C337.851399,175.473778 335.961516,175.695477 333.850771,175.695477 C328.293229,175.695477 323.959634,174.140235 320.958745,171.139346 C317.957856,168.02719 316.402614,163.248523 316.402614,156.58081 L316.402614,126.574431 L307.62332,126.574431 L307.62332,114.350013 L316.402614,114.350013 L316.402614,100.013176 L332.62766,100.013176 L332.62766,100.01234 Z" fill="#000000"></path>
		<path d="M407.644026,146.245438 C407.644026,155.136 405.643712,162.248784 401.643085,167.694222 C397.642458,173.029229 391.863216,175.695477 384.416627,175.695477 C380.860235,175.695477 377.859346,174.917438 375.303529,173.473464 C372.746876,172.027817 370.524026,169.917072 368.746248,167.138719 L367.635242,174.474039 L353.743477,174.474039 L353.743477,99.5689412 L345.185882,97.9024314 L345.185882,88.1225621 L369.857255,88.1225621 L369.857255,120.907294 C371.635869,118.461908 373.636183,116.684131 376.080732,115.349752 C378.526118,114.016209 381.303634,113.460706 384.415791,113.460706 C391.97281,113.460706 397.752052,116.350327 401.753516,122.018301 C405.754144,127.797542 407.754458,135.354562 407.754458,144.911895 L407.754458,146.246275 L407.644026,146.246275 L407.644026,146.245438 Z M391.529412,145.022327 C391.529412,139.243922 390.640941,134.575686 388.972758,131.131399 C387.306248,127.686275 384.305359,126.018928 380.193464,126.018928 C377.63681,126.018928 375.526065,126.574431 373.858719,127.575007 C372.080941,128.574745 370.746562,130.130824 369.746824,132.131137 L369.746824,157.358013 C370.746562,159.247895 372.080941,160.581438 373.858719,161.582013 C375.637333,162.581752 377.748078,163.026824 380.304732,163.026824 C384.416627,163.026824 387.417516,161.582013 389.084026,158.581961 C390.751373,155.69234 391.529412,151.469176 391.529412,146.135007 L391.529412,145.022327 Z M414.423007,144.021752 C414.423007,135.13119 416.868392,127.795869 421.868758,122.127895 C426.869961,116.460758 433.760209,113.570301 442.54034,113.570301 C451.430902,113.570301 458.32115,116.459922 463.322353,122.127895 C468.323556,127.795869 470.768105,135.13119 470.768105,144.13302 L470.768105,145.244026 C470.768105,154.246693 468.322719,161.581176 463.322353,167.24915 C458.32115,172.917124 451.430902,175.695477 442.651608,175.695477 C433.760209,175.695477 426.869961,172.917961 421.868758,167.24915 C416.867556,161.582013 414.423007,154.246693 414.423007,145.244026 L414.423007,144.021752 Z M430.537621,145.132758 C430.537621,150.579033 431.538196,154.912627 433.427242,158.24732 C435.317124,161.581176 438.428444,163.248523 442.762876,163.248523 C446.874771,163.248523 449.986928,161.582013 451.875974,158.24732 C453.765856,154.913464 454.765595,150.579033 454.765595,145.132758 L454.765595,144.021752 C454.765595,138.687582 453.765856,134.352314 451.875974,131.018458 C449.87566,127.685438 446.874771,126.017255 442.652444,126.017255 C438.428444,126.017255 435.428392,127.684601 433.428078,131.018458 C431.539033,134.352314 430.538458,138.687582 430.538458,144.021752 L430.538458,145.132758 L430.537621,145.132758 Z M499.664314,100.01234 L499.664314,114.682144 L510.222222,114.682144 L510.222222,126.018092 L499.664314,126.018092 L499.664314,156.468706 C499.664314,158.802824 500.108549,160.469333 501.109124,161.470745 C502.108863,162.470484 503.331974,162.915556 504.998484,162.915556 C506.10949,162.915556 507.110065,162.915556 507.888105,162.804288 C508.666144,162.69302 509.665882,162.581752 510.666458,162.360052 L512,174.028967 C510.222222,174.584471 508.443608,175.028706 506.66583,175.251242 C504.887216,175.473778 502.99817,175.695477 500.886588,175.695477 C495.329882,175.695477 490.995451,174.140235 487.995399,171.139346 C484.99451,168.02719 483.438431,163.248523 483.438431,156.58081 L483.438431,126.018928 L474.659137,126.018928 L474.659137,114.68298 L483.438431,114.68298 L483.438431,100.013176 L499.664314,100.013176 L499.664314,100.01234 Z" fill="#ED1C24"></path>
	</g>
</svg>

<svg preserveAspectRatio="xMidYMid" viewBox="0 0 512 176" xmlns="http://www.w3.org/2000/svg">
  <path d="M126.917 175.25c-1-6.556-6.668-11.669-13.56-11.669a13.659 13.659 0 0 0-13.558 11.67h27.118Z"/>
  <path d="M96.354 175.25c-1-6.556-6.668-11.669-13.559-11.669a13.658 13.658 0 0 0-13.559 11.67h27.118Z"/>
  <path fill="#ED1C24" d="M78.573 152.009v19.24h14.78v-48.454h-14.78v19.909a8.241 8.241 0 0 0-1.445 4.652 8.24 8.24 0 0 0 1.445 4.653Zm6.89-9.766a5.098 5.098 0 0 0-5.112 5.113c0 2.89 2.223 5.111 5.112 5.111 2.89 0 5.112-2.222 5.112-5.111a5.099 5.099 0 0 0-5.112-5.113Z"/>
  <path fill="#ED1C24" d="M117.247 142.545v-19.75h-14.78v48.455h14.78v-19.082a8.25 8.25 0 0 0 1.556-4.812 8.25 8.25 0 0 0-1.556-4.811Zm-6.779-.302a5.099 5.099 0 0 0-5.112 5.113c0 2.89 2.223 5.111 5.112 5.111 2.89 0 5.112-2.222 5.112-5.111a5.098 5.098 0 0 0-5.112-5.113Z"/>
  <path fill="#ED1C24" d="m142.885 75.111 2.702-41.78h4.334l2.086 41.912a7.204 7.204 0 0 1 2.582 5.543 7.209 7.209 0 0 1-6.886 7.216c-5.058 5.866-13.917 13.998-27.121 18.9V86.455s12.223 1.658 19.567-5.316a7.205 7.205 0 0 1 2.736-6.027Zm4.48 1.896c-2.112 0-3.89 1.778-3.89 3.89 0 2.111 1.778 3.89 3.89 3.89 2.111 0 3.89-1.779 3.89-3.89 0-2.112-1.667-3.89-3.89-3.89Z"/>
  <path fill="#ED1C24" d="m52.935 75.111-2.702-41.78h-4.335l-1.976 41.823a7.204 7.204 0 0 0-2.69 5.632 7.21 7.21 0 0 0 6.886 7.216c5.058 5.866 13.917 13.998 27.12 18.9V86.455s-12.223 1.658-19.567-5.316a7.205 7.205 0 0 0-2.736-6.026Zm-4.48 1.896c-2.111 0-3.89 1.778-3.89 3.89 0 2.111 1.779 3.89 3.89 3.89 2.112 0 3.89-1.779 3.89-3.89 0-2.112-1.778-3.89-3.89-3.89Z"/>
  <path d="M53.455 18.328v12.226H43.343V18.328c-3.113 1.778-5.224 5.113-5.224 8.89a10.198 10.198 0 0 0 10.225 10.225 10.197 10.197 0 0 0 10.224-10.224c.111-3.778-2-7.113-5.113-8.89Z"/>
  <path d="M143.031 18.328v12.226h10.113V18.328c3.112 1.778 5.224 5.113 5.224 8.89a10.197 10.197 0 0 1-10.224 10.225 10.198 10.198 0 0 1-10.225-10.224c-.112-3.778 2-7.113 5.112-8.89Z"/>
  <path d="m76.242 83.284.22-23.17c.11-5.89 2.444-11.335 6.667-15.447 4.223-4.112 9.78-6.335 15.67-6.223 5.89.11 11.335 2.444 15.447 6.667 4.112 4.223 6.335 9.78 6.224 15.67l-.284 22.187a29.231 29.231 0 0 1 7.508 19.601c0 16.204-13.136 29.34-29.34 29.34s-29.34-13.136-29.34-29.34a29.227 29.227 0 0 1 7.228-19.285Zm36.462-6.312.209-16.302c0-3.889-1.445-7.557-4.112-10.335-2.667-2.778-6.335-4.334-10.225-4.334-3.89 0-7.557 1.444-10.335 4.111-2.779 2.668-4.335 6.335-4.335 10.225l-.238 16.827a29.205 29.205 0 0 1 14.686-3.935 29.21 29.21 0 0 1 14.35 3.743Zm-21.796-7.967a3.223 3.223 0 1 0 0-6.445 3.223 3.223 0 0 0 0 6.445Zm15.114 0a3.223 3.223 0 1 0 0-6.445 3.223 3.223 0 0 0 0 6.445Z"/>
  <path fill="#ED1C24" d="m95.687 97.79-1.112 21.004h8.225l-1.667-21.115c2-1 3.333-3 3.333-5.446 0-3.334-2.778-6.112-6.112-6.112s-6.112 2.778-6.112 6.112c.111 2.556 1.445 4.556 3.445 5.557Z"/>
  <path fill="#ED1C24" d="M27.784 11.548c-3.001-4.444-7.225-7.001-11.67-7.001-4.556 0-8.668 2.444-11.78 6.89C1.556 15.55 0 20.995 0 26.663 0 32.33 1.556 37.777 4.334 41.89c3.001 4.444 7.224 6.89 11.67 6.89 4.445 0 8.668-2.445 11.78-6.89 2-2.89 3.334-6.335 3.89-10.114.111-.667.778-1.222 1.445-1.222l176.148.11c.778 0 1.445-.666 1.557-1.444v-4.668c0-.778-.667-1.445-1.445-1.555h-5.334c-.778 0-1.445-.667-1.445-1.556V1.657c0-.778-.667-1.445-1.445-1.556h-22.227c-.778 0-1.445.667-1.556 1.445v19.782c0 .778-.667 1.445-1.556 1.445h-1.334c-.778 0-1.444-.667-1.444-1.555V6.104c0-.778-.667-1.445-1.445-1.556h-3.445c-.778 0-1.445.667-1.556 1.445v15.114c0 .778-.667 1.444-1.556 1.444H33.23a1.446 1.446 0 0 1-1.445-1.222c-.779-3.446-2-7.002-4.001-9.78Zm-11.78 31.007c-5.335 0-9.892-7.335-9.892-15.892 0-8.557 4.557-15.893 10.003-15.893 5.445 0 9.89 7.336 9.89 15.893 0 8.558-4.667 15.892-10.002 15.892Z"/>
  <path d="M55.79 33.331c-.778-1.112-1.556-1.667-2.334-2.778H43.343V18.327c-3.113 1.778-5.224 5.113-5.224 8.891a10.198 10.198 0 0 0 10.225 10.224c3.111 0 5.89-1.445 7.78-3.556 0-.221-.223-.332-.334-.555Z"/>
  <path d="M140.808 33.331c.778-1.112 1-1.667 1.778-2.778h10.668V18.327c3.113 1.778 5.224 5.113 5.224 8.891a10.197 10.197 0 0 1-10.224 10.224c-3.112 0-5.89-1.445-7.78-3.556.001-.221.112-.332.334-.555Z"/>
  <path d="M166.147 163.249c2.89 0 5.224-.889 6.89-2.557 1.778-1.667 2.556-3.89 2.556-6.668h14.559l.111.333c.111 6.001-2.111 11.114-6.78 15.225-4.667 4.112-10.558 6.113-17.448 6.113-8.89 0-15.78-2.778-20.67-8.447-4.78-5.667-7.225-12.89-7.225-21.782v-1.667c0-8.78 2.446-16.003 7.446-21.782 5.001-5.668 12.003-8.558 21.227-8.558 4.779 0 9.113.667 13.003 2.11 3.779 1.446 7.001 3.446 9.557 6.114l.223 16.003h-13.114l-2.667-9.335a9.747 9.747 0 0 0-3-1.778c-1.223-.444-2.557-.667-4-.667-4.558 0-7.78 1.667-9.67 5.001-1.89 3.334-2.778 7.557-2.778 12.78v1.667c0 5.335.889 9.67 2.556 12.892 1.889 3.336 4.89 5.003 9.224 5.003Zm59.013 12.335c-8.668 0-15.559-2.777-20.67-8.335-5.113-5.557-7.78-12.558-7.78-21.116v-2.222c0-8.891 2.445-16.226 7.335-22.005 4.89-5.778 11.448-8.557 19.671-8.557 8.113 0 14.336 2.444 18.782 7.335 4.445 4.89 6.668 11.447 6.668 19.782v8.78H213.49l-.11.332c.333 4.001 1.667 7.225 4 9.78 2.335 2.557 5.557 3.78 9.558 3.78 3.556 0 6.556-.334 8.89-1.112 2.335-.667 4.89-1.89 7.78-3.445l4.335 10.002c-2.446 2-5.668 3.556-9.558 4.89-4.002 1.444-8.337 2.111-13.226 2.111Zm-1.444-49.566c-3.001 0-5.335 1.111-7.113 3.445-1.779 2.334-2.779 5.334-3.224 9.002l.112.223h19.893v-1.445c0-3.445-.778-6.112-2.444-8.224-1.556-2.001-3.89-3-7.224-3Zm34.896 38.786 7.78-1.667v-37.119l-8.558-1.666v-9.78h23.561l.667 8.779c1.445-3.111 3.223-5.557 5.445-7.223 2.223-1.779 4.78-2.557 7.669-2.557.889 0 1.778.111 2.667.223.888.11 1.667.333 2.334.444v12.224l-4.78.112c-4.223 0-8.001 1.556-9.335 2.445-1.444 1-2.778 3.334-3.667 5.001v29.117l7.78 1.667v9.67H258.5v-9.67h.11Zm74.016-64.792v14.226h10.558v12.224h-10.558v30.007c0 2.334.444 4 1.445 5.002 1 1 2.222 1.445 3.89 1.445 1.11 0 2.11 0 2.888-.112.78-.111 1.78-.222 2.779-.444l1.334 11.669c-1.778.555-3.556 1-5.335 1.222-1.778.223-3.667.444-5.778.444-5.558 0-9.891-1.555-12.892-4.556-3.001-3.112-4.556-7.89-4.556-14.558v-30.007h-8.78V114.35h8.78v-14.337h16.225Z"/>
  <path fill="#ED1C24" d="M407.644 146.245c0 8.891-2 16.004-6 21.45-4.002 5.334-9.78 8-17.227 8-3.557 0-6.558-.778-9.113-2.222-2.557-1.445-4.78-3.556-6.558-6.334l-1.11 7.335h-13.893V99.569l-8.557-1.667v-9.78h24.671v32.785c1.779-2.445 3.78-4.223 6.224-5.557 2.445-1.334 5.223-1.89 8.335-1.89 7.557 0 13.336 2.89 17.338 8.558 4 5.78 6 13.337 6 22.894v1.334h-.11Zm-16.115-1.223c0-5.778-.888-10.446-2.556-13.89-1.667-3.446-4.668-5.113-8.78-5.113-2.556 0-4.667.555-6.334 1.556-1.778 1-3.112 2.556-4.112 4.556v25.227c1 1.89 2.334 3.223 4.112 4.224 1.778 1 3.89 1.445 6.446 1.445 4.112 0 7.113-1.445 8.779-4.445 1.667-2.89 2.445-7.113 2.445-12.447v-1.113Zm22.894-1c0-8.89 2.445-16.226 7.446-21.894 5.001-5.667 11.891-8.558 20.671-8.558 8.89 0 15.781 2.89 20.782 8.558 5.002 5.668 7.446 13.003 7.446 22.005v1.111c0 9.003-2.445 16.337-7.446 22.005-5 5.668-11.891 8.446-20.67 8.446-8.892 0-15.782-2.777-20.783-8.446-5.001-5.667-7.446-13.002-7.446-22.005v-1.222Zm16.115 1.11c0 5.447 1 9.78 2.89 13.115 1.89 3.334 5 5.002 9.335 5.002 4.112 0 7.224-1.667 9.113-5.002 1.89-3.334 2.89-7.668 2.89-13.114v-1.111c0-5.334-1-9.67-2.89-13.004-2-3.333-5.001-5-9.224-5-4.224 0-7.224 1.667-9.224 5-1.889 3.334-2.89 7.67-2.89 13.004v1.11Zm69.126-45.12v14.67h10.558v11.336h-10.558v30.45c0 2.335.445 4.001 1.445 5.003 1 1 2.223 1.445 3.89 1.445 1.11 0 2.111 0 2.89-.112.777-.111 1.777-.222 2.777-.444L512 174.03c-1.778.555-3.556 1-5.334 1.222-1.779.223-3.668.444-5.78.444-5.556 0-9.89-1.555-12.89-4.556-3.001-3.112-4.558-7.89-4.558-14.558V126.02h-8.779v-11.336h8.78v-14.67h16.225Z"/>
</svg>
